icon-themes/sifr_svg/cmd/sc_flowchartshapes.flowchart-decision.svg

<svg viewBox="0 0 16 16" xmlns="http://www.w3.org/2000/svg"><g fill="#555753"><path d="m8 1.4142135-6.5857865 6.5857865 6.5857865 6.585786 6.585786-6.585786z" opacity=".35"/><path d="m8 0-.7070312.70703125-7.2929688 7.29296875 8 8 8-8zm0 2.828125 5.171875 5.171875-5.171875 5.171875-5.171875-5.171875z"/></g></svg>

<svg xmlns="http://www.w3.org/2000/svg" viewBox="0 0 16 16">
  <path
     style="fill:#555753;opacity:0.35"
     d="M 8,1.4142135 1.4142135,8 8,14.585786 14.585786,8 Z"
     />
  <path
     style="fill:#555753"
     d="M 8,0 7.2929688,0.70703125 0,8 8,16 16,8 Z M 8,2.828125 13.171875,8 8,13.171875 2.828125,8 Z"
     />
</svg>
